public/photos-zimo-text.svg

<?xml version="1.0" encoding="UTF-8" standalone="no"?>
<!DOCTYPE svg PUBLIC "-//W3C//DTD SVG 1.1//EN" "http://www.w3.org/Graphics/SVG/1.1/DTD/svg11.dtd">
<!-- Created with Vectornator (http://vectornator.io/) -->
<svg height="100%" stroke-miterlimit="10" style="fill-rule:nonzero;clip-rule:evenodd;stroke-linecap:round;stroke-linejoin:round;" version="1.1" viewBox="0 0 42.246 10.1809" width="100%" xml:space="preserve" xmlns="http://www.w3.org/2000/svg" xmlns:vectornator="http://vectornator.io" xmlns:xlink="http://www.w3.org/1999/xlink">
<defs>
<linearGradient gradientTransform="matrix(1 0 0 1 0 0)" gradientUnits="userSpaceOnUse" id="LinearGradient" x1="0" x2="44.5942" y1="3.82915" y2="3.82915">
<stop offset="0" stop-color="#ffcbcb"/>
<stop offset="1" stop-color="#ffd39b"/>
</linearGradient>
</defs>
<g id="Layer-1" vectornator:layerName="Layer 1">
<g opacity="1" vectornator:layerName="Group 5">
<g fill="url(#LinearGradient)" opacity="1" stroke="none" vectornator:layerName="Text 1">
<path d="M2.25696 0.174056L10.8447 0.174056L10.8447 2.13678L5.33837 7.88429L11.0457 7.88429L11.0457 9.99439L1.72776 9.99439L1.72776 7.95798L7.17382 2.27076L2.25696 2.27076L2.25696 0.174056Z"/>
<path d="M12.5328 0.174056L15.574 0.174056L15.574 9.99439L12.5328 9.99439L12.5328 0.174056Z"/>
<path d="M17.7176 0.174056L21.7101 0.174056L23.2508 6.14932L24.7848 0.174056L28.7638 0.174056L28.7638 9.99439L26.2853 9.99439L26.2853 2.50521L24.3628 9.99439L22.1187 9.99439L20.2028 2.50521L20.2028 9.99439L17.7176 9.99439L17.7176 0.174056Z"/>
<path d="M30.3179 5.09092C30.3179 3.48769 30.7645 2.2395 31.6577 1.34633C32.5508 0.453169 33.7946 0.00658772 35.3889 0.00658772C37.0233 0.00658772 38.2827 0.445354 39.1669 1.32289C40.0512 2.20042 40.4933 3.42964 40.4933 5.01054C40.4933 6.15825 40.3001 7.09942 39.9138 7.83405C39.5276 8.56868 38.9693 9.1403 38.2392 9.54892C37.509 9.95755 36.5991 10.1619 35.5094 10.1619C34.4019 10.1619 33.4853 9.98546 32.7596 9.63266C32.0339 9.27986 31.4455 8.72163 30.9945 7.95798C30.5434 7.19432 30.3179 6.23864 30.3179 5.09092ZM33.3524 5.10432C33.3524 6.09573 33.5367 6.80803 33.9051 7.24121C34.2735 7.6744 34.7748 7.89099 35.409 7.89099C36.061 7.89099 36.5656 7.67886 36.9229 7.25461C37.2801 6.83036 37.4588 6.06893 37.4588 4.97034C37.4588 4.04592 37.2723 3.37046 36.8994 2.94398C36.5265 2.51749 36.0208 2.30425 35.3822 2.30425C34.7703 2.30425 34.2791 2.52084 33.9084 2.95403C33.5378 3.38721 33.3524 4.10398 33.3524 5.10432Z"/>
</g>
</g>
</g>
</svg>

<svg xmlns="http://www.w3.org/2000/svg" xmlns:vectornator="http://vectornator.io" xml:space="preserve" stroke-miterlimit="10" style="fill-rule:nonzero;clip-rule:evenodd;stroke-linecap:round;stroke-linejoin:round" viewBox="0 0 42.246 10.181"><defs><linearGradient id="a" x1="0" x2="44.594" y1="3.829" y2="3.829" gradientUnits="userSpaceOnUse"><stop offset="0" stop-color="#ffcbcb"/><stop offset="1" stop-color="#ffd39b"/></linearGradient></defs><g vectornator:layerName="Layer 1"><g vectornator:layerName="Group 5"><g vectornator:layerName="Text 1" fill="url(#a)"><path d="M2.257.174h8.588v1.963L5.338 7.884h5.708v2.11H1.728V7.958l5.446-5.687H2.257V.174ZM12.533.174h3.041v9.82h-3.041V.174ZM17.718.174h3.992l1.54 5.975L24.786.174h3.979v9.82h-2.479V2.505l-1.922 7.49h-2.244l-1.916-7.49v7.49h-2.485V.174ZM30.318 5.09c0-1.602.447-2.85 1.34-3.744.893-.893 2.137-1.34 3.73-1.34 1.635 0 2.895.44 3.779 1.317.884.877 1.326 2.107 1.326 3.688 0 1.147-.193 2.088-.58 2.823A4.13 4.13 0 0 1 38.24 9.55c-.73.409-1.64.613-2.73.613-1.107 0-2.024-.177-2.75-.53-.725-.352-1.314-.91-1.765-1.674-.45-.764-.676-1.72-.676-2.867Zm3.034.014c0 .992.185 1.704.553 2.137.368.433.87.65 1.504.65.652 0 1.157-.212 1.514-.636.357-.425.536-1.186.536-2.285 0-.924-.187-1.6-.56-2.026-.373-.427-.878-.64-1.517-.64-.612 0-1.103.217-1.474.65-.37.433-.556 1.15-.556 2.15Z"/></g></g></g></svg>
